X: 1555
T: Padişah-ı İşvesin
C: Tâhir Ağa
O: Turkey
F: http://compmusic.upf.edu/node/140
N: ussak--agirsemai--agir_aksaksemai--padisah-i_isvesin--tahir_aga
N: makam= ussak
N: form= agirsemai
N: usul= agir_aksaksemai = 10/4
M: 10/4
L: 1/16
K: C _2/4B   
Q: 1/4=60
%%MIDI tuningsystem comma53
A8 G2^F2 E4 E2D2 z2G2 F2G2 A4 _1/4B2A2 B2G4A8G4c8c4d2 c2B2 B8  | 
w:   | 
A2G2 G8 G4 G2c2 _1/4B2A2 B2c2 B2c2 d8  | \
w:   | 
d4 d8 d4 e2d2 d2c2 c2e2 d2e2 d2c2 _1/4B2A2  | 
w:   | 
G4 c8 d2c2 _1/4B2B6 A2A4B2 A2A8z4A8G2 ^F2E4E2 D2z2 G2F2 G2A4B2  | 
w:   | 
A2_1/4B2 G4 A8 A2G2 c8 c4 d2c2 B2B8A2 G2G8G4G2 c2B2 A2B4c2 B2c2  | 
w:   | 
d8 d4 d8 d4 e2d2 d2c2 c2e2 d2e2  | \
w:   | 
d2c2 _1/4B2A2 G4 c8 d2c2 B2B6 A2A4c2  | 
w:   | 
_1/4B2A2 A8 z4 G4 G4 c4 B4 A8  | _1/4BAB2 G4 c4 B4 A8 B3/2A/B2 G4 c4 d2c2  | 
w:   |   | 
_1/4B2B2 A2c2 B2A2 A4 A2B2 A2G2 ^F2E2 D8 G4  | \
w:   | 
G4 c4 _1/4B4 A8 BAB2 G4 c4 B4 A8 B3/2A/B2 G4 c4 d2c2 B2B2 A2c2 B2A2 A8  | 
w:   | 
z2d2 ^c2e2 d4 z4 d4 d4 d4 d2c2 d8  | \
w:   | 
^c2d2 e2f2 f4 g2f2 e2d2 c2_BA B2c4c2 d2c2 B2_d4e2 d2c2 B2A2 B4 B4 B4 A2G2 G8 G4  | 
w:   | 
G4 G4 A4 _1/4B2G8A8c4B2 A2G8G8G4A4B6 AGG8G4G8z4c4c4c4c4c6 B2B8B4B4B6 A2A8G4A4B4A2 G2c8c4d2 c2B2 c4 z4 c4 c4  | 
w:   | 
c4 c4 c6_1/4B2 B8 B4 B4 B6A2  | A8 G4 A4 _1/4B4 A2G2 G8 G4 G8 z4 g4 g4 g4 a4 g4 f2e2 e4 d2e2  | 
w:   |   | 
d2d4e2 d2d4c2 _1/4B2c6 B2d4c2 B2A8g4a8a8z4g4g4g4a4g4f2 e2e4d2 e2d2 d4 e2d2 d4 c2B2 c6B2 d4 c2B2 A8 c2B2 A4 G2^F2 E6D2  | 
w:   | 
z2G2 ^F2G2 A4 A2_1/4B2 G4 A8 A2G2 c8  | \
w:   | 
c4 d2c2 _1/4B2B8A2 G2G8G4G2 c2B2  | 
w:   | 
A2_1/4B4c2 B2c2 d12 d8 d4 e2d2  | \
w:   | 
d2c2 c2e2 d2e2 d2c2 _1/4B3A G4 c8 d2c2 B2B6 A2A4c2 B2A2 A8 A4 |
w:   | 


